Yaru++/actions/16/format-text-capitalize.svg

<svg viewBox="0 0 24 24" xmlns="http://www.w3.org/2000/svg"><path d="m6.0351562 8-4.0351562 12h.9746094l1.4453125-4h5.0332031l1.441406 4h1.105469l-4.0898438-12zm6.9648438 0v8 4h1v-1.361328a4 4 0 0 0 3 1.361328 4 4 0 0 0 4-4 4 4 0 0 0 -4-4 4 4 0 0 0 -3 1.361328v-5.361328zm-6.0566406 1.0292969 2.1484375 5.9707031h-4.3085938zm10.0566406 3.9707031a3 3 0 0 1 3 3 3 3 0 0 1 -3 3 3 3 0 0 1 -3-3 3 3 0 0 1 3-3z" fill="#808080"/><path d="m7 3-3 4h6z" fill="#1d99f3"/></svg>

<svg xmlns="http://www.w3.org/2000/svg" viewBox="0 0 24 24">
 <defs>
  <style id="current-color-scheme" type="text/css">
   .ColorScheme-Text { color:#808080; } .ColorScheme-Highlight { color:#1d99f3; }
  </style>
 </defs>
 <path style="fill:currentColor" class="ColorScheme-Text" d="M 6.0351562 8 L 2 20 L 2.9746094 20 L 4.4199219 16 L 9.453125 16 L 10.894531 20 L 12 20 L 7.9101562 8 L 6.0351562 8 z M 13 8 L 13 16 L 13 20 L 14 20 L 14 18.638672 A 4 4 0 0 0 17 20 A 4 4 0 0 0 21 16 A 4 4 0 0 0 17 12 A 4 4 0 0 0 14 13.361328 L 14 8 L 13 8 z M 6.9433594 9.0292969 L 9.0917969 15 L 4.7832031 15 L 6.9433594 9.0292969 z M 17 13 A 3 3 0 0 1 20 16 A 3 3 0 0 1 17 19 A 3 3 0 0 1 14 16 A 3 3 0 0 1 17 13 z"/>
 <path style="fill:currentColor" class="ColorScheme-Highlight" d="M 7 3 L 4 7 L 10 7 L 7 3 z"/>
</svg>
